dist/svg/container-cluster.svg

<!-- Generated by Trend Micro Style Portal -->
<svg version="1.1" xmlns="http://www.w3.org/2000/svg" width="16" height="16" viewBox="0 0 16 16">
  <title>container-cluster</title>
  <path fill="rgb(34,34,34)" d="M11.742 2.799l-3.242 1.908v3.712l3.242-1.922v-3.698z"></path>
  <path fill="rgb(34,34,34)" d="M8 0l-3.263 1.92 3.263 1.92 3.263-1.92-3.263-1.92z"></path>
  <path fill="rgb(34,34,34)" d="M7.5 4.707l-3.242-1.908v3.698l3.242 1.922v-3.712z"></path>
  <path fill="rgb(34,34,34)" d="M12.749 12.114v3.886l3.251-1.927v-3.886l-3.251 1.927z"></path>
  <path fill="rgb(34,34,34)" d="M8.501 14.075l3.248 1.925v-3.885l-3.248-1.925v3.886z"></path>
  <path fill="rgb(34,34,34)" d="M12.369 7.431l-0.12-0.071-3.278 1.943 3.278 1.943 3.278-1.943-3.158-1.872z"></path>
  <path fill="rgb(34,34,34)" d="M0 14.073l3.251 1.927v-3.886l-3.251-1.927v3.886z"></path>
  <path fill="rgb(34,34,34)" d="M4.251 12.114v3.886l3.25-1.926v-3.886l-0.002 0.001-3.248 1.925z"></path>
  <path fill="rgb(34,34,34)" d="M7.029 9.303l-3.278-1.943-3.278 1.943 3.278 1.943 3.278-1.943z"></path>
</svg>

<svg width="16" height="16" viewBox="0 0 16 16" fill="rgb(34, 34, 34)" xmlns="http://www.w3.org/2000/svg"><title>container-cluster</title><g clip-path="url(#clip0_281_996)"><path d="M11.742 2.799L8.5 4.707V8.419L11.742 6.497V2.799Z" fill="rgb(34, 34, 34)" fill-opacity="1.00"/><path d="M8 0L4.737 1.92L8 3.84L11.263 1.92L8 0Z" fill="rgb(34, 34, 34)" fill-opacity="1.00"/><path d="M7.5 4.707L4.258 2.799V6.497L7.5 8.419V4.707Z" fill="rgb(34, 34, 34)" fill-opacity="1.00"/><path d="M12.749 12.114V16L16 14.073V10.187L12.749 12.114Z" fill="rgb(34, 34, 34)" fill-opacity="1.00"/><path d="M8.501 14.075L11.749 16V12.115L8.501 10.19V14.076V14.075Z" fill="rgb(34, 34, 34)" fill-opacity="1.00"/><path d="M12.249 7.36L8.971 9.303L12.249 11.246L15.527 9.303L12.249 7.36Z" fill="rgb(34, 34, 34)" fill-opacity="1.00"/><path d="M0 14.073L3.251 16V12.114L0 10.187V14.073Z" fill="rgb(34, 34, 34)" fill-opacity="1.00"/><path d="M4.251 12.114V16L7.501 14.074V10.188L7.499 10.189L4.251 12.114Z" fill="rgb(34, 34, 34)" fill-opacity="1.00"/><path d="M7.029 9.303L3.751 7.36L0.473 9.303L3.751 11.246L7.029 9.303Z" fill="rgb(34, 34, 34)" fill-opacity="1.00"/></g><defs><clipPath id="clip0_281_996"><rect width="16" height="16" fill="rgb(34, 34, 34)"/></clipPath></defs></svg>
